X: 37
M:2/4
L:1/8
K:Bb
(3F/G/A/ | B>d c/B/c/d/ | B/d/f/b/ gf | b/a/g/f/ g/f/d/B/ | c/d/c/B/ GF |
g>a b(a/g/) | f/b/d/f/ B/d/F | c/=B/c/d/ eA | B/A/B/c/ df |
g>a b(a/g/) |f/b/d/f/ B/d/F | c/=B/c/d/ eA | B/A/B/c/ B3 ||



